X:1
T:Peakhurst, 76.76 D
T:Peakhurst, 76.76 D
T:Edward Milo Fuller, 1903
T:Public Domain Courtesy of the Cyber Hymnal™
C:Edward Milo Fuller, 1903
Z:Public Domain
Z:Courtesy of the Cyber Hymnal™
%%score ( 1 2 ) ( 3 4 )
L:1/8
Q:1/4=115
M:4/4
K:G
V:1 treble 
V:2 treble 
V:3 bass 
V:4 bass 
V:1
 [Gd]2 | [Gd]2 [GB]2 [FA]2 [FB]2 | [FA]2 G4 [=FG]2 | [EG]2 [Ec]2 [Ec]2 [Ge]2 | [Gd]6 [Gd]2 | %5
 [Gd]2 [GB]2 [FA]2 [FB]2 | [FA]2 [EG]4 [GB]2 | [FA]2 [Fd]2 [Fd]2 [G^c]2 | [Fd]6 [Fd]2 | %9
 [Fd]2 [FA]2 [FB]2 [DA]2 | [DA]2 [DG]4 [DB]2 | [DB]2 [DE]2 [D=F]2 [DE]2 | [CA]6 A2 | %13
 [FA]2 [Fc]2 [FB]2 [FA]2 | d4 [Ec]2 [EA]2 | [DG]2 [GB]2 [FB]3 [FA] x2 | G6 |] %17
V:2
 x2 | x8 | x2 G4 x2 | x8 | x8 | x8 | x8 | x8 | x8 | x8 | x8 | x8 | x6 A2 | x8 | (G2 =F2) x4 | x10 | %16
 G6 |] %17
V:3
 [G,B,]2 | [G,B,]2 [G,D]2 [D,C]2 [D,D]2 | [G,C]2 [G,B,]4 [G,B,]2 | [C,C]2 [C,G,]2 [C,G,]2 [C,C]2 | %4
 [G,B,]6 [G,B,]2 | [G,B,]2 [G,D]2 [D,C]2 [D,D]2 | [^D,C]2 [E,B,]4 [E,^C]2 | %7
 [D,D]2 [B,D]2 [A,D]2 [A,E]2 | [D,D]6 [D,D]2 | [D,C]2 [D,C]2 [D,D]2 [D,C]2 | [G,C]2 [G,B,]4 G,2 | %11
 [E,^G,]2 [E,G,]2 [E,G,]2 [E,G,]2 | [A,,A,]6 [=G,C]2 | [F,D]2 [D,E]2 [D,D]2 [C,D]2 | %14
 (D2 G,2) [C,C]2 x2 | [D,B,]2 [D,D]2 [D,D]2 [D,D]3 [D,C] | [G,B,]6 |] %17
V:4
 x2 | x8 | x8 | x8 | x8 | x8 | x8 | x8 | x8 | x8 | x6 G,2 | x8 | x8 | x8 | B,,4 x4 | x10 | x6 |] %17

